usr/share/icons/biglinux-icons-material/scalable/apps/appimagekit-balena-etcher-electron.svg

<svg xmlns="http://www.w3.org/2000/svg" xml:space="preserve" width="24" height="24" viewBox="0 0 6.35 6.35"><defs><radialGradient id="a" cx="0" cy="0" r="1" fx="0" fy="0" gradientTransform="matrix(0 16.5 -16.5 0 9 .75)" gradientUnits="userSpaceOnUse" spreadMethod="pad"><stop offset="0" style="stop-opacity:1;stop-color:#8fc8ff"/><stop offset="1" style="stop-opacity:1;stop-color:#0056a8"/></radialGradient></defs><g style="fill:none"><path d="M7.195.836c.09 0 .176-.012.258-.035a23.86 23.86 0 0 1 3.231.008 10.26 10.26 0 0 1 2.836.636c1.519.625 2.558 1.711 3.121 3.254.316.93.507 1.887.566 2.867a21.227 21.227 0 0 1-.086 3.696 8.976 8.976 0 0 1-.672 2.488c-.637 1.383-1.672 2.336-3.101 2.859a11.693 11.693 0 0 1-3.575.618 15.998 15.998 0 0 1-4.089-.309c-2.481-.551-4.016-2.066-4.594-4.543a14.244 14.244 0 0 1-.336-3.383c-.027-1.211.101-2.41.387-3.59.609-2.312 2.078-3.746 4.406-4.3A10.27 10.27 0 0 1 7.195.836Z" style="fill:url(#a);fill-rule:evenodd;stroke:none" transform="scale(.35277)"/></g><path fill="#c8f178" d="M32.121 5c-1.168-.005-2.338.246-3.23.756L10.969 15.998c-.692.395-1.332 1.016-1.86 1.744l6.344 3.7 12.549 7.316c1.698.99 3.11 2.674 3.998 4.568.888-1.894 2.3-3.578 3.998-4.568L54.87 17.754c-.493-.648-1.073-1.203-1.7-1.569l-8.913-5.199-8.916-5.201c-.888-.518-2.053-.78-3.221-.785Zm23.748 14.486-6.318 3.684-12.541 7.314c-2.086 1.217-4.008 4.566-4.014 6.988 0 .014.004.028.004.041l-.002.678.062 13.842.032 6.865c.737-.112 1.437-.323 2.017-.654l17.922-10.242c1.785-1.02 3.241-3.517 3.25-5.572l.047-10.322.045-10.32c.003-.739-.186-1.535-.504-2.301zm-47.713.016c-.269.693-.435 1.402-.438 2.068l-.046 10.322-.045 10.32c-.01 2.056 1.423 4.566 3.199 5.602l8.916 5.199 8.916 5.201c.64.373 1.425.608 2.25.715l.031-6.897.063-13.842-.002-.677c0-.014.004-.028.004-.041-.006-2.423-1.929-5.772-4.014-6.989L14.449 23.17 8.156 19.5Z" style="isolation:isolate" transform="matrix(.0736 0 0 .0736 .82 .823)"/><path fill="#a5de37" d="M32.09 12c-.865-.004-1.732.183-2.393.56l-6.638 3.794-6.637 3.793c-.46.262-.886.661-1.252 1.128l.283.166 12.55 7.317c1.698.99 3.109 2.674 3.997 4.568.889-1.893 2.3-3.577 3.998-4.568l12.55-7.317.263-.154c-.337-.409-.716-.762-1.127-1.002l-13.207-7.703c-.658-.384-1.522-.578-2.387-.582Zm17.701 11.029-.24.14-12.541 7.315c-2.086 1.217-4.008 4.566-4.014 6.988 0 .014.004.028.004.041l-.002.674.063 13.686c.45-.09.88-.227 1.242-.433l6.638-3.793 6.637-3.793c1.322-.756 2.402-2.607 2.408-4.13l.035-7.644.034-7.644c.002-.452-.1-.933-.264-1.406zm-35.564.012a4.165 4.165 0 0 0-.213 1.234l-.035 7.645-.033 7.644c-.007 1.523 1.055 3.383 2.37 4.15l13.208 7.704c.408.237.898.394 1.416.486l.062-13.717-.002-.674c0-.013.004-.027.004-.04-.006-2.423-1.928-5.773-4.013-6.99L14.45 23.17Z" style="isolation:isolate" transform="matrix(.0736 0 0 .0736 .82 .823)"/></svg>

<?xml version="1.0" encoding="UTF-8" standalone="no"?>
<svg
   width="24"
   height="24"
   viewBox="0 0 6.349875 6.349875"
   version="1.1"
   id="svg33397"
   sodipodi:docname="appimagekit-balena-etcher-electron.svg"
   xml:space="preserve"
   inkscape:version="1.2.2 (b0a8486541, 2022-12-01)"
   xmlns:inkscape="http://www.inkscape.org/namespaces/inkscape"
   xmlns:sodipodi="http://sodipodi.sourceforge.net/DTD/sodipodi-0.dtd"
   xmlns="http://www.w3.org/2000/svg"
   xmlns:svg="http://www.w3.org/2000/svg"><defs
     id="defs33401"><radialGradient
       id="paint0_radial_3_321"
       cx="0"
       cy="0"
       r="1"
       gradientUnits="userSpaceOnUse"
       gradientTransform="matrix(0,22,-22,0,12,1)"><stop
         stop-color="#555555"
         id="stop255"
         offset="0"
         style="stop-color:#818181;stop-opacity:1;" /><stop
         offset="1"
         stop-color="#222222"
         id="stop257"
         style="stop-color:#35393c;stop-opacity:1;" /></radialGradient><radialGradient
       id="paint0_radial_29_23"
       cx="0"
       cy="0"
       r="1"
       gradientUnits="userSpaceOnUse"
       gradientTransform="matrix(0,22,-22,0,12,1)"><stop
         stop-color="#8FC8FF"
         id="stop5919" /><stop
         offset="1"
         stop-color="#0056A8"
         id="stop5921" /></radialGradient><radialGradient
       fx="0"
       fy="0"
       cx="0"
       cy="0"
       r="1"
       gradientUnits="userSpaceOnUse"
       gradientTransform="matrix(0,16.5,-16.5,0,8.999991,0.750011)"
       spreadMethod="pad"
       id="radialGradient9652"><stop
         style="stop-opacity:1;stop-color:#8fc8ff"
         offset="0"
         id="stop9648" /><stop
         style="stop-opacity:1;stop-color:#0056a8"
         offset="1"
         id="stop9650" /></radialGradient><clipPath
       clipPathUnits="userSpaceOnUse"
       id="clipPath9662"><path
         d="M 0,0 H 19 V 19 H 0 Z"
         id="path9660" /></clipPath><clipPath
       clipPathUnits="userSpaceOnUse"
       id="clipPath9682"><path
         d="M 0,0 H 19 V 19 H 0 Z"
         id="path9680" /></clipPath><radialGradient
       fx="0"
       fy="0"
       cx="0"
       cy="0"
       r="1"
       gradientUnits="userSpaceOnUse"
       gradientTransform="matrix(0,16.5,-16.5,0,8.999991,0.750011)"
       spreadMethod="pad"
       id="radialGradient9652-9"><stop
         style="stop-opacity:1;stop-color:#8fc8ff"
         offset="0"
         id="stop9648-1" /><stop
         style="stop-opacity:1;stop-color:#0056a8"
         offset="1"
         id="stop9650-2" /></radialGradient><clipPath
       clipPathUnits="userSpaceOnUse"
       id="clipPath9662-7"><path
         d="M 0,0 H 19 V 19 H 0 Z"
         id="path9660-0" /></clipPath><clipPath
       clipPathUnits="userSpaceOnUse"
       id="clipPath9682-9"><path
         d="M 0,0 H 19 V 19 H 0 Z"
         id="path9680-3" /></clipPath></defs><sodipodi:namedview
     id="namedview33399"
     pagecolor="#ffffff"
     bordercolor="#000000"
     borderopacity="0.25"
     inkscape:showpageshadow="2"
     inkscape:pageopacity="0.0"
     inkscape:pagecheckerboard="0"
     inkscape:deskcolor="#d1d1d1"
     showgrid="false"
     inkscape:zoom="4.8282135"
     inkscape:cx="-23.093428"
     inkscape:cy="18.743993"
     inkscape:window-width="2560"
     inkscape:window-height="1000"
     inkscape:window-x="1680"
     inkscape:window-y="0"
     inkscape:window-maximized="1"
     inkscape:current-layer="svg33397" /><g
     id="g33705"
     transform="translate(-5.2915625,-5.2915625)"><g
       id="g9638"
       transform="matrix(0.35277082,0,0,0.35277082,5.2914429,5.2915533)"
       style="fill:none"><g
         id="g9640"><g
           id="g9646"><path
             d="m 7.195,0.836 c 0.09,0 0.176,-0.012 0.258,-0.035 1.078,-0.071 2.156,-0.067 3.231,0.008 0.976,0.078 1.921,0.289 2.836,0.636 1.519,0.625 2.558,1.711 3.121,3.254 0.316,0.93 0.507,1.887 0.566,2.867 0.078,1.235 0.051,2.465 -0.086,3.696 -0.105,0.863 -0.328,1.691 -0.672,2.488 -0.637,1.383 -1.672,2.336 -3.101,2.859 C 12.191,17 11,17.207 9.773,17.227 8.398,17.301 7.035,17.195 5.684,16.918 3.203,16.367 1.668,14.852 1.09,12.375 0.844,11.262 0.73,10.133 0.754,8.992 0.727,7.781 0.855,6.582 1.141,5.402 1.75,3.09 3.219,1.656 5.547,1.102 6.09,0.969 6.641,0.879 7.195,0.836 Z"
             style="fill:url(#radialGradient9652-9);fill-rule:evenodd;stroke:none"
             id="path9654" /></g></g></g><g
       id="g33650"
       transform="matrix(0.27814114,0,0,0.27814114,6.111602,6.1142165)"><path
         transform="scale(0.26458)"
         d="M 32.121,5 C 30.953,4.995 29.783,5.246 28.891,5.756 L 10.969,15.998 c -0.692,0.395 -1.332,1.016 -1.86,1.744 l 6.344,3.7 12.549,7.316 c 1.698,0.99 3.11,2.674 3.998,4.568 0.888,-1.894 2.3,-3.578 3.998,-4.568 L 54.87,17.754 c -0.493,-0.648 -1.073,-1.203 -1.7,-1.569 L 44.257,10.986 35.341,5.785 C 34.453,5.267 33.288,5.005 32.12,5 Z M 55.869,19.486 49.551,23.17 37.01,30.484 c -2.086,1.217 -4.008,4.566 -4.014,6.988 0,0.014 0.004,0.028 0.004,0.041 l -0.002,0.678 0.062,13.842 0.032,6.865 c 0.737,-0.112 1.437,-0.323 2.017,-0.654 L 53.031,48.002 c 1.785,-1.02 3.241,-3.517 3.25,-5.572 l 0.047,-10.322 0.045,-10.32 c 0.003,-0.739 -0.186,-1.535 -0.504,-2.301 z M 8.156,19.502 C 7.887,20.195 7.721,20.904 7.718,21.57 L 7.672,31.892 7.627,42.212 c -0.01,2.056 1.423,4.566 3.199,5.602 l 8.916,5.199 8.916,5.201 c 0.64,0.373 1.425,0.608 2.25,0.715 L 30.939,52.032 31.002,38.19 31,37.513 c 0,-0.014 0.004,-0.028 0.004,-0.041 C 30.998,35.049 29.075,31.7 26.99,30.483 L 14.449,23.17 8.156,19.5 Z"
         fill="#c8f178"
         style="isolation:isolate"
         id="path33393" /><path
         transform="scale(0.26458)"
         d="m 32.09,12 c -0.865,-0.004 -1.732,0.183 -2.393,0.56 l -6.638,3.794 -6.637,3.793 c -0.46,0.262 -0.886,0.661 -1.252,1.128 l 0.283,0.166 12.55,7.317 c 1.698,0.99 3.109,2.674 3.997,4.568 0.889,-1.893 2.3,-3.577 3.998,-4.568 l 12.55,-7.317 0.263,-0.154 C 48.474,20.878 48.095,20.525 47.684,20.285 L 34.477,12.582 C 33.819,12.198 32.955,12.004 32.09,12 Z m 17.701,11.029 -0.24,0.14 -12.541,7.315 c -2.086,1.217 -4.008,4.566 -4.014,6.988 0,0.014 0.004,0.028 0.004,0.041 l -0.002,0.674 0.063,13.686 c 0.45,-0.09 0.88,-0.227 1.242,-0.433 l 6.638,-3.793 6.637,-3.793 c 1.322,-0.756 2.402,-2.607 2.408,-4.13 l 0.035,-7.644 0.034,-7.644 c 0.002,-0.452 -0.1,-0.933 -0.264,-1.406 z m -35.564,0.012 a 4.165,4.165 0 0 0 -0.213,1.234 l -0.035,7.645 -0.033,7.644 c -0.007,1.523 1.055,3.383 2.37,4.15 l 13.208,7.704 c 0.408,0.237 0.898,0.394 1.416,0.486 L 31.002,38.187 31,37.513 C 31,37.5 31.004,37.486 31.004,37.473 30.998,35.05 29.076,31.7 26.991,30.483 L 14.45,23.17 Z"
         fill="#a5de37"
         style="isolation:isolate"
         id="path33395" /></g></g></svg>
